svg/OSM-icons/historic #61210b °ffffff !label=enhistoric,deHistorisches/19023;historic=memorial;[memorial];!label=enmemorial,deGedenk- stätte.svg

<svg xmlns="http://www.w3.org/2000/svg" viewBox="0 0 580 580" enable-background="new 0 0 580 580"><path fill="#111" stroke="#eee" stroke-width="3.408" d="m66.28 1.768c-41.34 0-64.57 21.371-64.57 65.04v450.12c0 40.844 20.894 62.23 62.19 62.23h452.02c41.31 0 62.23-20.316 62.23-62.23v-450.12c0-42.601-20.923-65.04-63.52-65.04-.003 0-448.49-.143-448.35 0z"/><g fill="#fff"><path d="m108.22 480.75h363.54c.007 0 .014 0 .02 0 3.575 0 6.473-2.898 6.473-6.473 0-1.581-.566-3.03-1.508-4.153l-17.996-24.917c-1.217-1.685-3.169-2.683-5.247-2.683h-327.24c-2.092 0-4.054 1.01-5.269 2.713l-18.04 25.28c-1.408 1.974-1.595 4.568-.486 6.723 1.111 2.156 3.331 3.51 5.755 3.51"/><path d="m480.46 494.41c-1.214-1.214-2.86-1.896-4.577-1.896h-371.54c-3.562 0-6.454 2.878-6.472 6.44l-.22 43.538c-.009 1.722.669 3.376 1.884 4.598 1.215 1.221 2.866 1.907 4.588 1.907h371.76c3.574 0 6.473-2.898 6.473-6.473v-43.538c0-1.716-.683-3.362-1.896-4.576"/><path d="m453.8 431.38v-372c0-15.328-13.05-28.375-28.375-28.375h-270.87c-15.328 0-28.344 13.05-28.344 28.375v372c.059 1.445 327.65.786 327.59 0m-279.7-342.78h224.99v12h-224.99v-12m0 52.5h224.99v12h-224.99v-12m0 52.5h224.99v12h-224.99v-12m0 52.5h224.99v12h-224.99v-12"/></g></svg>

<?xml version="1.0" encoding="utf-8"?>
<!-- Generator: Adobe Illustrator 15.0.0, SVG Export Plug-In . SVG Version: 6.00 Build 0)  -->
<!DOCTYPE svg PUBLIC "-//W3C//DTD SVG 1.1//EN" "http://www.w3.org/Graphics/SVG/1.1/DTD/svg11.dtd">
<svg version="1.1" xmlns="http://www.w3.org/2000/svg" xmlns:xlink="http://www.w3.org/1999/xlink" x="0px" y="0px" width="580px"
	 height="580px" viewBox="0 0 580 580" enable-background="new 0 0 580 580" xml:space="preserve">
<g id="Layer_2">
	<g id="g1327">
		<path id="path1329" fill="#111111" stroke="#EEEEEE" stroke-width="3.408" d="M66.275,1.768
			c-41.335,0-64.571,21.371-64.571,65.036v450.123c0,40.844,20.894,62.229,62.192,62.229H515.92
			c41.307,0,62.229-20.316,62.229-62.229V66.804c0-42.601-20.923-65.036-63.522-65.036C514.624,1.768,66.133,1.625,66.275,1.768z"/>
	</g>
</g>
<g id="svg2" inkscape:output_extension="org.inkscape.output.svg.inkscape" inkscape:version="0.46" sodipodi:docname="waste_bin.svg" sodipodi:version="0.32" xmlns:inkscape="http://www.inkscape.org/namespaces/inkscape" xmlns:rdf="http://www.w3.org/1999/02/22-rdf-syntax-ns#" xmlns:svg="http://www.w3.org/2000/svg" xmlns:sodipodi="http://sodipodi.sourceforge.net/DTD/sodipodi-0.dtd" xmlns:cc="http://creativecommons.org/ns#" xmlns:dc="http://purl.org/dc/elements/1.1/">
	<g>
		<path fill="#FFFFFF" d="M108.221,480.745h363.538c0.007,0,0.014,0,0.02,0c3.575,0,6.473-2.898,6.473-6.473
			c0-1.581-0.566-3.029-1.508-4.153l-17.996-24.917c-1.217-1.685-3.169-2.683-5.247-2.683H126.259c-2.092,0-4.054,1.011-5.269,2.713
			l-18.038,25.28c-1.408,1.974-1.595,4.568-0.486,6.723C103.577,479.391,105.797,480.745,108.221,480.745z"/>
		<path fill="#FFFFFF" d="M480.456,494.408c-1.214-1.214-2.86-1.896-4.577-1.896H104.341c-3.562,0-6.454,2.878-6.472,6.44
			l-0.22,43.538c-0.009,1.722,0.669,3.376,1.884,4.598c1.215,1.221,2.866,1.907,4.588,1.907h371.757
			c3.574,0,6.473-2.898,6.473-6.473l0.001-43.538C482.352,497.268,481.669,495.622,480.456,494.408z"/>
		<path fill="#FFFFFF" d="M453.797,431.38v-372c0-15.328-13.047-28.375-28.375-28.375H154.547
			c-15.328,0-28.344,13.047-28.344,28.375v372C126.262,432.825,453.852,432.166,453.797,431.38z M174.096,88.601h224.989v12H174.096
			V88.601z M174.096,141.098h224.989v12H174.096V141.098z M174.096,193.595h224.989v12H174.096V193.595z M174.096,246.093h224.989
			v12H174.096V246.093z"/>
	</g>
</g>
</svg>
